export/highlight.svg

<svg width="25" height="25" viewBox="0 0 25 25" fill="none" xmlns="http://www.w3.org/2000/svg">
<path d="M17.5311 13.7141L8.0245 8.22547M17.5311 13.7141L20.25 9.00478M17.5311 13.7141L16.5 15.5L13.232 16.134L12 18L11.4142 17.6485M8.0245 8.22547L10.75 3.50479M8.0245 8.22547L6.99999 9.99998L7.99998 13L6.99998 15L7.58576 15.3514M7.58576 15.3514L4.90192 20L10.0566 20L11.4142 17.6485M7.58576 15.3514L11.4142 17.6485M13 20H20" stroke="#101112" stroke-width="1.2" stroke-linejoin="round"/>
</svg>

<svg width="25" height="25" viewBox="0 0 25 25" fill="none" xmlns="http://www.w3.org/2000/svg">
<path d="m20.25 9.005-2.719 4.71M10.75 3.504l-2.725 4.72m9.506 5.49-9.506-5.49m9.506 5.49L16.5 15.5l-3.268.634L12 18l-.586-.352m-3.39-9.423L7 10l1 3-1 2 .586.351m0 0L4.902 20h5.155l1.357-2.352m-3.828-2.297 3.828 2.297M13 20h7" stroke="#101112" stroke-width="1.2" stroke-linecap="round" stroke-linejoin="round"/>
</svg>
